X:1
T:Title
%%score { ( 1 4 ) | ( 2 3 ) }
L:1/8
Q:1/4=100
M:6/8
K:G
V:1 treble nm="Grand Piano"
V:4 treble 
V:2 treble 
V:3 treble 
V:1
 B2 B B2 [FA] | [FA]2 G G2 G | [EA][EA][EG] [GB]2 [FA] | G6 | B2 B B2 [FA] | [FA]2 G G2 G | %6
w: George~S.~Weeks * * *||||||
 [EA][EA][EG] [GB]2 [FA] | [DG]6 | [FA]2 [Fc] [Fc]2 [CFA] | [DGB]2 [DGB] [DGB]3 | %10
w: ||||
 [DFA]2 [CFA] .[^CGA]2 [G^c] |[M:13/16] [Fd]-<[Fd][FA]A-<Ac3/2 |[M:3/4] B2 B B2 [FA] | %13
w: |||
 [FA]2 G G2 G | [EA][EA] [EG] [GB]2 [FA] | G6 | dB B B3 | ec c c3 | dc B [GA]2 [EG] | [FA]6 | %20
w: |||||||
 dB B B3 |[M:13/16] eccc-<ce3/2 | %22
w: ||
[M:3/4] dB G [GB]2 [FA][Q:1/4=97][Q:1/4=94][Q:1/4=91][Q:1/4=88][Q:1/4=84][Q:1/4=81][Q:1/4=78] | %23
w: |
 [DG]6 |] %24
w: |
V:2
 [G,DG]2 [G,DG] [G,DG]2[K:bass] [D,C] | [D,C]2 [G,B,D] [G,B,D]2 [G,B,D] | %2
 [C,G,][C,G,][^C,G,] [D,D]2 [D,C] | [G,B,D]6 | [G,DG]2 [G,DG] [G,DG]2[K:bass] [D,C] | %5
 [D,C]2 [G,B,D] [G,B,D]2 [G,B,D] | [C,G,][C,G,][^C,G,] [D,D]2 [D,C] | [G,B,]6 | %8
 [D,C]2 [D,A,] [D,A,]2 D, | G,2 G, G,3 | D,2 D, z[K:treble] B[K:bass][E,A,] | %11
[M:13/16] [D,A,]-<[D,A,][D,D][D,D]/-[D,D]/-[D,D]/-[D,D]-<[D,D] | %12
[M:3/4][K:treble] [G,DG]2 [G,DG] [G,DG]2[K:bass] [D,C] | [D,C]2 [G,B,D] [G,B,D]2 [G,B,D] | %14
 [C,G,][C,G,] [^C,G,] [D,D]2 [D,C] | [G,B,D]6 | [G,B,G][G,DG] [G,DG] [G,DG]3 | %17
 [G,CG][G,EG] [G,EG] [G,EG]3 | [G,B,G][G,EG] [G,DG][K:bass] [E,^C]2 [E,C] | [D,D]6 | %20
 [G,B,G][G,DG] [G,DG] [G,DG]3 |[M:13/16] [G,CG][G,EG][G,EG][G,EG]-<[G,EG][G,CG]3/2 | %22
[M:3/4] [G,B,G][G,DG][K:bass] [G,B,D] [D,D]2 [D,C] | [G,B,]6 |] %24
V:3
 x5[K:bass] x | x6 | x6 | x6 | x5[K:bass] x | x6 | x6 | x6 | x6 | x6 | z3 .E,3[K:treble][K:bass] | %11
[M:13/16] x13/2 |[M:3/4][K:treble] x5[K:bass] x | x6 | x6 | x6 | x6 | x6 | x3[K:bass] x3 | x6 | %20
 x6 |[M:13/16] x13/2 |[M:3/4] x2[K:bass] x4 | x6 |] %24
V:4
 x6 | x6 | x6 | x6 | x6 | x6 | x6 | x6 | x6 | x6 | x6 |[M:13/16] z/ z/ z/ z/ z F/-F/-F/-F-<F | %12
[M:3/4] x6 | x6 | x6 | x6 | x6 | x6 | x6 | x6 | x6 |[M:13/16] x13/2 |[M:3/4] x6 | x6 |] %24

